src/lib/packages/icons/src/assets/filled/chromecast.svg

<svg width="24" height="24" viewBox="0 0 24 24" fill="none" xmlns="http://www.w3.org/2000/svg">
<path d="M18 21H14C13.447 21 13 20.552 13 20C13 19.448 13.447 19 14 19H18C19.439 19 20 18.439 20 17V8C20 6.561 19.439 6 18 6H6C4.561 6 4 6.561 4 8V9C4 9.552 3.553 10 3 10C2.447 10 2 9.552 2 9V8C2 5.458 3.458 4 6 4H18C20.542 4 22 5.458 22 8V17C22 19.542 20.542 21 18 21ZM6.75806 20.8679C7.30606 20.7929 7.68901 20.2889 7.61401 19.7419C7.46401 18.6399 6.96196 17.6359 6.16296 16.8369C5.36496 16.0389 4.36103 15.538 3.25903 15.387C2.70503 15.313 2.20696 15.6949 2.13196 16.2419C2.05796 16.7889 2.44106 17.2929 2.98706 17.3679C3.65306 17.4589 4.26202 17.764 4.74902 18.251C5.23602 18.738 5.54096 19.3469 5.63196 20.0129C5.69996 20.5139 6.12995 20.8779 6.62195 20.8779C6.66695 20.8769 6.71206 20.8739 6.75806 20.8679ZM9.99902 21C9.48002 21 9.04205 20.6 9.00305 20.075C8.88505 18.508 8.20501 17.0301 7.08801 15.9121C5.97101 14.7941 4.49205 14.1151 2.92505 13.9961C2.37405 13.9541 1.96105 13.4751 2.00305 12.9241C2.04405 12.3731 2.52495 11.953 3.07495 12.002C5.11895 12.156 7.04595 13.042 8.50195 14.498C9.95695 15.954 10.8429 17.8811 10.9969 19.9241C11.0389 20.4751 10.626 20.9551 10.075 20.9961C10.05 20.9991 10.024 21 9.99902 21ZM4.38 19.8701C4.38 20.5601 3.82 21.1201 3.13 21.1201C2.44 21.1201 1.88 20.5601 1.88 19.8701C1.88 19.1801 2.44 18.6201 3.13 18.6201C3.82 18.6201 4.38 19.1791 4.38 19.8701Z" fill="currentColor"/>
</svg>

<svg xmlns="http://www.w3.org/2000/svg" width="24" height="24" fill="none"><path fill="currentColor" d="M18 21h-4a1 1 0 1 1 0-2h4c1.439 0 2-.561 2-2V8c0-1.439-.561-2-2-2H6c-1.439 0-2 .561-2 2v1a1 1 0 1 1-2 0V8c0-2.542 1.458-4 4-4h12c2.542 0 4 1.458 4 4v9c0 2.542-1.458 4-4 4Zm-11.242-.132a1 1 0 0 0 .856-1.126 5.043 5.043 0 0 0-1.451-2.905 5.048 5.048 0 0 0-2.904-1.45.998.998 0 0 0-1.127.855c-.074.547.31 1.05.855 1.126a3.063 3.063 0 0 1 1.762.883c.487.487.792 1.096.883 1.762a1 1 0 0 0 1.126.855ZM10 21a1 1 0 0 1-.996-.925 6.596 6.596 0 0 0-1.915-4.163 6.595 6.595 0 0 0-4.163-1.916 1 1 0 0 1-.922-1.072.995.995 0 0 1 1.072-.922 8.594 8.594 0 0 1 5.427 2.496 8.598 8.598 0 0 1 2.495 5.426A.999.999 0 0 1 9.999 21Zm-5.62-1.13a1.25 1.25 0 1 1-2.5 0 1.25 1.25 0 0 1 2.5 0Z"/></svg>
